packages/astro-components-stencil/src/icons/event-available.svg

<svg xmlns="http://www.w3.org/2000/svg" viewBox="0 0 24 24"><g xmlns="http://www.w3.org/2000/svg" id="event-available" fill-rule="nonzero">
            <path d="M16 10.53a.754.754 0 00-1.06 0l-4.35 4.35L9 13.29a.754.754 0 00-1.06 0c-.29.29-.29.77 0 1.06l1.94 1.94c.39.39 1.02.39 1.41 0l4.7-4.7c.3-.29.3-.77.01-1.06zM19 3h-1V2c0-.55-.45-1-1-1s-1 .45-1 1v1H8V2c0-.55-.45-1-1-1s-1 .45-1 1v1H5c-1.11 0-1.99.9-1.99 2L3 19a2 2 0 002 2h14c1.1 0 2-.9 2-2V5c0-1.1-.9-2-2-2zm-1 16H6c-.55 0-1-.45-1-1V8h14v10c0 .55-.45 1-1 1z"/>
        </g></svg>

<svg width="24" height="24" viewBox="0 0 24 24" fill="none" xmlns="http://www.w3.org/2000/svg">
<path fill-rule="evenodd" clip-rule="evenodd" d="M19 3H18V2C18 1.45 17.55 1 17 1C16.45 1 16 1.45 16 2V3H8V2C8 1.45 7.55 1 7 1C6.45 1 6 1.45 6 2V3H5C3.89 3 3.01 3.9 3.01 5L3 19C3 20.1 3.89 21 5 21H19C20.1 21 21 20.1 21 19V5C21 3.9 20.1 3 19 3ZM16 10.53C15.71 10.24 15.23 10.24 14.94 10.53L10.59 14.88L9 13.29C8.71 13 8.23 13 7.94 13.29C7.65 13.58 7.65 14.06 7.94 14.35L9.88 16.29C10.27 16.68 10.9 16.68 11.29 16.29L15.99 11.59C16.29 11.3 16.29 10.82 16 10.53ZM6 19H18C18.55 19 19 18.55 19 18V8H5V18C5 18.55 5.45 19 6 19Z" fill="black"/>
</svg>
